icon-themes/breeze_svg/cmd/sc_starshapes.horizontal-scroll.svg

<svg viewBox="0 0 16 16" xmlns="http://www.w3.org/2000/svg">/&gt;<path d="m12.5 2c-.82845 0-1.5.67155-1.5 1.5h-6-1.5c-.8310075 0-1.5.669-1.5 1.5v7.5c0 .82845.67155 1.5 1.5 1.5s1.5-.67155 1.5-1.5h6.75.75c.831008 0 1.5-.669 1.5-1.5v-7.5c0-.82845-.67155-1.5-1.5-1.5z" fill="#4d4d4d"/></svg>

<svg xmlns="http://www.w3.org/2000/svg" viewBox="0 0 16 16">
     />
 <path 
     style="fill:#4d4d4d" 
     d="M 12.5 2 C 11.67155 2 11 2.67155 11 3.5 L 5 3.5 L 3.5 3.5 C 2.6689925 3.5 2 4.169 2 5 L 2 12.5 C 2 13.32845 2.67155 14 3.5 14 C 4.32845 14 5 13.32845 5 12.5 L 11.75 12.5 L 12.5 12.5 C 13.331008 12.5 14 11.831 14 11 L 14 3.5 C 14 2.67155 13.32845 2 12.5 2 z "
     />
 </svg>
